X:1
T: The Chocolate Round O
N:2 February 1999
C:
S:
A:
O:
R:
M:4/4
K:Am
I:speed 200
%W: A
% voice 1 (1 lines, 23 notes)
K:Am
M:4/4
L:1/16
e4 |A4 B4 E2 ^F2 ^G2 E2 |A2 B2 c2 d2 e4 c4 |d4 e4 f2 a2 g2 f2 |e4 c4 z4 e4 |
%W:
% voice 1 (1 lines, 18 notes)
A4 B4 E2 ^F2 ^G2 E2 |A4 e4 z4 c4 |d4 e4 f2 e2 d2 c2 |B12 e4 |
%W:
% voice 1 (1 lines, 22 notes)
A4 B4 E2 ^F2 ^G2 E2 |A2 B2 c2 d2 e4 c4 |d4 e4 f2 a2 g2 f2 |e4 c4 z4 e4 |
%W:
% voice 1 (1 lines, 18 notes)
A4 B4 E2 ^F2 ^G2 E2 |A4 e4 z4 c4 |d4 e4 f2 e2 d2 c2 |d12 c4 |
%W: B
% voice 1 (1 lines, 19 notes)
g4 a4 d2 e2 f2 g2 |e4 c4 z4 c4 |g4 a4 d2 c2 B2 A2 |e8 z4 e4 |
%W:
% voice 1 (1 lines, 19 notes)
f4 f2 e2 d4 ^c4 |d4 d2 e2 f4 e4 |d2 c2 B2 A2 ^G4 e4 |c4 A8 c4 |
%W:
% voice 1 (1 lines, 19 notes)
g4 a4 d2 e2 f2 g2 |e4 c4 z4 c4 |g4 a4 d2 c2 B2 A2 |e8 z4 e4 |
%W:
% voice 1 (1 lines, 18 notes)
f4 f2 e2 d4 ^c4 |d4 d2 e2 f4 e4 |d2 c2 B2 A2 ^G4 e4 |c4 A8 ||
